X:72
T: ES WEIDET EIN SCHAEFER IM LANGEN HOLZ
N: E0043C
O: Europa, Mitteleuropa, Deutschland
R: erzaehlendes Volks - Lied, Ritter - Sage
M: 4/4
L: 1/8
K: F
F | FGABc2de | f2cAF2z2
d3cdcBA | G3AG2
AB | c2c2dcBA | G2GGG2
cA | G2GGG2cA | G2GGG2z2
c2def3B | A2G2F2z

